X:1
T:Polska efter Neptun
R:Polska
Z:C-G Magnusson, 2008-09-28
O:Frndefors, Dalsland
S:efter Carl Johannesson, Frndefors
B:Svenska Ltar
N:Svenska Ltar, Dalsland nr 267
Q:110
M:3/4
L:1/8
K:Am
e2 (e/2^f/2g) e/2f/2g | a2 (3a^ga b2 | b2 a^g ef | gf df a^g |
e2 (e/2^f/2g) e/2f/2g | a2 (3a^ga b2 | b2 ag eg | (3fdf e2 z2 :|
|: ef gf d>e | (3fgf e2 B2 | cd ed Bd | cB (3ABA G2- |
Gg gf de | (3fgf e2 B2 | cd ed Bd | c>B A4 :|
